static/img/svg/message-detail.svg

<svg xmlns="http://www.w3.org/2000/svg" width="24" height="24" viewBox="0 0 24 24"><path d="M21 3H3a1 1 0 0 0-1 1v12a1 1 0 0 0 1 1h4v4a.999.999 0 0 0 1.707.707L13.414 17H21a1 1 0 0 0 1-1V4a1 1 0 0 0-1-1zm-1 12h-7a.996.996 0 0 0-.707.293L9 18.586V16a1 1 0 0 0-1-1H4V5h16v10z"/><path d="M6 7h12v2H6zM6 11h6v2H6z"/></svg>

<svg xmlns="http://www.w3.org/2000/svg" width="24" height="24" viewBox="0 0 24 24"><path d="M21,3H3C2.447,3,2,3.447,2,4v12c0,0.553,0.447,1,1,1h4v4c0,0.404,0.243,0.77,0.617,0.924C7.741,21.976,7.871,22,8,22 c0.26,0,0.516-0.102,0.707-0.293L13.414,17H21c0.553,0,1-0.447,1-1V4C22,3.447,21.553,3,21,3z M20,15h-7 c-0.266,0-0.52,0.105-0.707,0.293L9,18.586V16c0-0.553-0.447-1-1-1H4V5h16V15z"/><path d="M6 7H18V9H6zM6 11H12V13H6z"/></svg>
